svg/fluentui-system-icons/ic_fluent_predictions_24_regular.svg

<svg width="24" height="24" viewBox="0 0 24 24" fill="none" xmlns="http://www.w3.org/2000/svg">
<path d="M12 2C13.1533 2 14.2391 2.28926 15.1888 2.79919C15.1125 3.245 14.9647 3.56044 14.7626 3.76256C14.652 3.87316 14.5074 3.96747 14.3259 4.04283C13.6241 3.69484 12.8348 3.5 12 3.5C9.10051 3.5 6.75 5.85051 6.75 8.75C6.75 10.8882 8.02822 12.7278 9.86222 13.5465C10.5503 13.815 11.1857 13.9625 11.7683 13.9937L12 14C12.6447 14 13.3575 13.8508 14.1372 13.5477C15.053 13.1384 15.8302 12.475 16.3789 11.6472C17.0183 11.8672 17.7877 11.7336 18.2728 11.2467C17.8577 12.2895 17.1902 13.2039 16.3459 13.9151L17.9673 18.7802C18.2336 19.5789 17.8933 20.4541 17.1573 20.8632C15.7856 21.6256 14.0643 22 12 22C9.93575 22 8.21443 21.6256 6.84269 20.8632C6.10675 20.4541 5.76645 19.579 6.0327 18.7802L7.65415 13.9151C6.18405 12.6769 5.25 10.8225 5.25 8.75C5.25 5.02208 8.27208 2 12 2ZM15.0566 14.7914L14.6969 14.9395L14.6788 14.9475C13.9523 15.262 13.1595 15.4525 12.3272 15.4922C12.321 15.4911 12.3153 15.4914 12.3096 15.4917C12.2858 15.4941 12.2614 15.4951 12.237 15.4959L12 15.5L11.804 15.496L11.6733 15.4908C10.8405 15.4525 10.0477 15.262 9.32116 14.9475L9.30307 14.9395C9.18403 14.893 9.06416 14.8436 8.94345 14.7914L7.45573 19.2545C7.41769 19.3686 7.46631 19.4937 7.57144 19.5521C8.70008 20.1794 10.174 20.5 12 20.5C13.826 20.5 15.2999 20.1794 16.4286 19.5521C16.5337 19.4937 16.5823 19.3686 16.5443 19.2545L15.0566 14.7914ZM11.6898 15.493L11.804 15.496L11.8373 15.4977L12 15.5C11.896 15.5 11.7926 15.4976 11.6898 15.493ZM17.9924 1.88021L18 2C18 3.14961 18.2699 3.95921 18.7803 4.46967C19.2515 4.94087 19.9776 5.20706 20.9907 5.24522L21.25 5.25C22.2083 5.25 22.2483 6.6276 21.3698 6.7424L21.25 6.75C20.1004 6.75 19.2908 7.01987 18.7803 7.53033C18.3091 8.00153 18.0429 8.72761 18.0048 9.74072L18 10C18 11 16.5 11 16.5 10C16.5 8.85039 16.2301 8.04079 15.7197 7.53033C15.2485 7.05913 14.5224 6.79294 13.5093 6.75478L13.25 6.75C12.2917 6.75 12.2517 5.3724 13.1302 5.2576L13.25 5.25C14.3996 5.25 15.2092 4.98013 15.7197 4.46967C16.2301 3.95921 16.5 3.14961 16.5 2C16.5 1.04167 17.8776 1.00174 17.9924 1.88021ZM17.25 4.95251L17.1063 5.15617C17.0063 5.28828 16.8976 5.41304 16.7803 5.53033C16.6044 5.70627 16.4116 5.86273 16.2025 6C16.4116 6.13727 16.6044 6.29373 16.7803 6.46967C16.9563 6.64561 17.1127 6.83835 17.25 7.04749C17.3873 6.83835 17.5437 6.64561 17.7197 6.46967C17.8956 6.29373 18.0884 6.13727 18.2975 6C18.0884 5.86273 17.8956 5.70627 17.7197 5.53033C17.6024 5.41304 17.4937 5.28828 17.3937 5.15617L17.25 4.95251Z" fill="#212121"/>
</svg>

<svg xmlns="http://www.w3.org/2000/svg" width="24" height="24"><path d="M12 2c1.153 0 2.24.29 3.189.8-.076.445-.224.76-.426.963a1.33 1.33 0 0 1-.437.28 5.25 5.25 0 1 0-4.464 9.504c.688.268 1.324.416 1.906.447L12 14c.645 0 1.357-.15 2.137-.452a5.277 5.277 0 0 0 2.242-1.9c.64.22 1.409.086 1.894-.401a6.763 6.763 0 0 1-1.927 2.668l1.621 4.865a1.75 1.75 0 0 1-.81 2.083C15.786 21.626 14.064 22 12 22s-3.786-.374-5.157-1.137a1.75 1.75 0 0 1-.81-2.083l1.621-4.865A6.75 6.75 0 0 1 12 2Zm3.057 12.791-.36.149-.018.008a6.715 6.715 0 0 1-2.352.544h-.017a1.08 1.08 0 0 1-.073.004L12 15.5l-.196-.004-.13-.005a6.683 6.683 0 0 1-2.353-.543l-.018-.008a10.88 10.88 0 0 1-.36-.149l-1.487 4.463a.25.25 0 0 0 .115.298c1.13.627 2.603.948 4.429.948s3.3-.32 4.429-.948a.25.25 0 0 0 .115-.297l-1.487-4.464Zm-3.367.702.114.003.033.002.163.002c-.104 0-.207-.002-.31-.007ZM17.992 1.88 18 2c0 1.15.27 1.96.78 2.47.471.47 1.198.737 2.21.775l.26.005c.958 0 .998 1.378.12 1.492l-.12.008c-1.15 0-1.96.27-2.47.78-.47.472-.737 1.198-.775 2.21L18 10c0 1-1.5 1-1.5 0 0-1.15-.27-1.96-.78-2.47-.472-.47-1.198-.737-2.21-.775l-.26-.005c-.958 0-.998-1.378-.12-1.492l.12-.008c1.15 0 1.96-.27 2.47-.78.51-.51.78-1.32.78-2.47 0-.958 1.378-.998 1.492-.12Zm-.742 3.073-.144.203a3.608 3.608 0 0 1-.904.844 3.637 3.637 0 0 1 1.048 1.047A3.636 3.636 0 0 1 18.297 6a3.637 3.637 0 0 1-.903-.844l-.144-.203Z"/></svg>
